src/Static/Positions/ks-position-10.svg

<?xml version="1.0" encoding="UTF-8"?>
<svg width="191px" height="236px" viewBox="0 0 191 236" version="1.1" xmlns="http://www.w3.org/2000/svg" xmlns:xlink="http://www.w3.org/1999/xlink">
    <title>sex-etsy-10</title>
    <defs>
        <path d="M7.8392,106.8971 L19.0916,107.1237 C19.4144,106.6092 19.7649,106.1064 20.1727,105.6321 L37.7217,85.2132 L29.6386,75.3803 C27.8912,73.2555 27.0763,70.577 27.3429,67.8386 C27.6104,65.1012 28.9286,62.6303 31.0543,60.8838 C32.7762,59.4693 34.8587,58.6636 37.0777,58.5531 C40.3237,58.3915 43.492,59.7924 45.5518,62.2995 L51.3516,69.3543 L56.8943,62.905 C55.1079,60.9951 53.2013,59.05 51.1448,57.0328996 C40.0266,46.2558 26.8941,47.7249 20.2447,53.486 C20.1984,53.526 20.1627,53.5737 20.1173,53.6144 C6.3126,63.9286 1.0854,91.6429 0.1058,97.6017 C-0.2702,99.8913 0.3665,102.2311 1.8499,104.0148 C3.3343,105.7984 5.5198,106.8502 7.8392,106.8971 Z M22.7054,79.1425 C25.5577,82.7945 28.9007,86.923 32.3096,91.3863 L17.8333,91.0949 C18.9947,86.602 20.4332,82.1974 22.0213,78.3458 C22.2485,78.6122 22.4666,78.8864 22.7054,79.1425 Z" id="path-1"></path>
        <filter x="-14.9%" y="-11.2%" width="130.8%" height="129.3%" filterUnits="objectBoundingBox" id="filter-2">
            <feMorphology radius="1.5" operator="dilate" in="SourceAlpha" result="shadowSpreadOuter1"></feMorphology>
            <feOffset dx="0" dy="2" in="shadowSpreadOuter1" result="shadowOffsetOuter1"></feOffset>
            <feGaussianBlur stdDeviation="2" in="shadowOffsetOuter1" result="shadowBlurOuter1"></feGaussianBlur>
            <feComposite in="shadowBlurOuter1" in2="SourceAlpha" operator="out" result="shadowBlurOuter1"></feComposite>
            <feColorMatrix values="0 0 0 0 0   0 0 0 0 0   0 0 0 0 0  0 0 0 1 0" type="matrix" in="shadowBlurOuter1"></feColorMatrix>
        </filter>
        <path d="M76.657,61.5988 L80.0481,65.5364 L80.9358,64.627 C82.7566,62.7627 85.1913,61.6647 87.7915,61.5353 C89.1609,61.4671 90.5172,61.6831 91.7861,62.1394 L104.2946,51.3867 C104.5373,50.604 104.8617,49.8341 105.2734,49.0885 C106.3415,47.1534 107.862,45.631 109.6252,44.5607 C108.7468,45.3987 107.9782,46.3814 107.3606,47.5005 C104.0984,53.4099 106.2445,60.8449 112.1538,64.107 C116.1282,66.3009 120.7876,66.0394 124.4086,63.8414 C120.6487,67.4284 114.857,68.3393 110.0667,65.6949 C108.6585,64.9175 107.4712,63.898 106.5127,62.7238 C106.0024,64.254 105.4304,65.6727 104.7915,66.9386 C104.4311,67.6529 104.0518,68.3235 103.6467,68.9295 C101.8379,71.6357 99.9402,73.5977 98.0088,75.2583 C97.5173,76.6485 96.7361,77.9312 95.6753,79.0173 L77.9053,97.22 L89.9236,111.174 C92.3323,113.9711 95.9509,115.0995 99.3367,114.4701 C99.5291,114.6266 99.7361,114.7926 99.9588,114.9681 L120.1092,216.5118 C121.0535,221.2725 125.2322,224.5675 129.9071,224.5675 C130.5526,224.5675 131.2069,224.505 131.8641,224.3741 C137.2811,223.2989 140.8016,218.0362 139.7264,212.6192 L121.8485,122.5264 C124.2504,121.6966 126.4286,119.9449 128.1346,116.8543 C129.4564,114.4605 130.2,112.7046 130.5111,111.4219 C134.1058,102.3115 131.4164,96.0984 135.6561,86.5991 C135.9613,85.9149 136.3207,85.228 136.7198,84.5411 C137.4387,83.3045 138.3004,82.0687 139.2603,80.8479 C137.7958,80.6528 136.3416,80.1991 134.9703,79.4421 C130.18,76.7978 127.8643,71.4115 128.8961,66.3184 C128.9657,70.5537 131.2274,74.6358 135.2018,76.8297 C141.1112,80.0918 148.5462,77.9458 151.8082,72.0364 C152.426,70.9173 152.848,69.7434 153.0891,68.5536 C153.1229,70.6158 152.645,72.7137 151.5768,74.6488 C151.4337,74.9081 151.2727,75.1509 151.1139,75.3956 L167.6039,123.3457 C168.5307,126.0405 171.0512,127.7339 173.7504,127.7339 C174.4506,127.7339 175.1645,127.6196 175.8647,127.3784 C179.2592,126.2109 181.0649,122.5127 179.8969,119.1181 L165.05,75.9463 C161.7432,74.7492 157.2625,71.8233 154.5371,64.6503 C152.7489,59.9446 153.5677,54.8274 155.0622,49.8878 C153.6793,47.9437 151.9547,45.93 149.7925,43.9626 C141.7241,47.3574 132.0664,46.0763 125.1439,39.8423 C122.1816,37.1737 120.0473,33.9058 118.7778,30.3719 C115.8908,30.0029 113.6821,29.9697 112.3281,30.0084 C110.6184,29.8362 108.8445,30.3323 107.4387,31.5406 L74.6414,59.734 C75.3734,60.2747 76.0518,60.896 76.657,61.5988 Z M115.3277,56.9865 C114.6695,58.1791 113.169,58.6122 111.9764,57.9538 C110.7839,57.2955 110.3508,55.795 111.0091,54.6025 C111.6674,53.41 113.1678,52.9768 114.3604,53.6352 C115.553,54.2936 115.986,55.794 115.3277,56.9865 Z M140.503,73.7012 C139.3104,73.0429 138.8774,71.5424 139.5357,70.3499 C140.1939,69.1573 141.6944,68.7243 142.887,69.3826 C144.0795,70.0409 144.5126,71.5414 143.8543,72.7339 C143.196,73.9264 141.6956,74.3595 140.503,73.7012 Z" id="path-3"></path>
        <filter x="-9.0%" y="-3.3%" width="117.1%" height="108.7%" filterUnits="objectBoundingBox" id="filter-4">
            <feMorphology radius="1.5" operator="dilate" in="SourceAlpha" result="shadowSpreadOuter1"></feMorphology>
            <feOffset dx="0" dy="2" in="shadowSpreadOuter1" result="shadowOffsetOuter1"></feOffset>
            <feGaussianBlur stdDeviation="2" in="shadowOffsetOuter1" result="shadowBlurOuter1"></feGaussianBlur>
            <feComposite in="shadowBlurOuter1" in2="SourceAlpha" operator="out" result="shadowBlurOuter1"></feComposite>
            <feColorMatrix values="0 0 0 0 0   0 0 0 0 0   0 0 0 0 0  0 0 0 1 0" type="matrix" in="shadowBlurOuter1"></feColorMatrix>
        </filter>
        <path d="M76.2928,98.8717 L69.4772,105.8531 C67.6585,107.7173 65.2227,108.8153 62.6195,108.9449 C62.3054,108.9605 61.9897,108.9616 61.6722,108.9491 C58.7463,108.8239 56.0061,107.4565 54.1502,105.1983 L53.5788,104.5032 L46.4128,112.841 C48.0544,116.0009 49.4985,119.2141 50.6325,122.4561 C53.8354,129.81 56.5478,132.6181 59.831,132.9159 C58.9348,168.6973 35.852,204.5382 35.5695,204.9712 C31.7795,210.7417 33.3859,218.4917 39.1564,222.2808 C41.2716,223.6695 43.6515,224.3335 46.006,224.3335 C50.0753,224.3335 54.0656,222.3486 56.466,218.6929 C58.1161,216.1811 94.5988,159.7547 82.2833,108.3338 C82.1369,107.2963 81.921,106.2096 81.6355,105.0748 L76.2928,98.8717 Z" id="path-5"></path>
        <filter x="-16.6%" y="-5.8%" width="133.1%" height="114.1%" filterUnits="objectBoundingBox" id="filter-6">
            <feMorphology radius="1.5" operator="dilate" in="SourceAlpha" result="shadowSpreadOuter1"></feMorphology>
            <feOffset dx="0" dy="2" in="shadowSpreadOuter1" result="shadowOffsetOuter1"></feOffset>
            <feGaussianBlur stdDeviation="2" in="shadowOffsetOuter1" result="shadowBlurOuter1"></feGaussianBlur>
            <feComposite in="shadowBlurOuter1" in2="SourceAlpha" operator="out" result="shadowBlurOuter1"></feComposite>
            <feColorMatrix values="0 0 0 0 0   0 0 0 0 0   0 0 0 0 0  0 0 0 1 0" type="matrix" in="shadowBlurOuter1"></feColorMatrix>
        </filter>
        <path d="M25.5933,44.967 C38.0024,45.6467 48.6105,36.1393 49.2901,23.7312 C49.9698,11.323 40.4634,0.714 28.0544,0.0343 C15.6473,-0.6453 5.0372,8.8619 4.3575,21.2701 C3.6778,33.6781 13.1861,44.2873 25.5933,44.967 Z" id="path-7"></path>
        <filter x="-18.9%" y="-14.4%" width="137.8%" height="137.8%" filterUnits="objectBoundingBox" id="filter-8">
            <feMorphology radius="1.5" operator="dilate" in="SourceAlpha" result="shadowSpreadOuter1"></feMorphology>
            <feOffset dx="0" dy="2" in="shadowSpreadOuter1" result="shadowOffsetOuter1"></feOffset>
            <feGaussianBlur stdDeviation="2" in="shadowOffsetOuter1" result="shadowBlurOuter1"></feGaussianBlur>
            <feComposite in="shadowBlurOuter1" in2="SourceAlpha" operator="out" result="shadowBlurOuter1"></feComposite>
            <feColorMatrix values="0 0 0 0 0   0 0 0 0 0   0 0 0 0 0  0 0 0 1 0" type="matrix" in="shadowBlurOuter1"></feColorMatrix>
        </filter>
        <path d="M52.0964,102.6997 L39.2042,87.0166 L21.9168,107.131 C18.3172,111.3195 18.7947,117.633 22.9832,121.2326 C24.8699,122.8547 27.1883,123.6486 29.4959,123.6486 C32.3094,123.6486 35.1072,122.4679 37.0848,120.1662 L52.0964,102.6997 Z" id="path-9"></path>
        <filter x="-26.1%" y="-20.0%" width="153.6%" height="148.7%" filterUnits="objectBoundingBox" id="filter-10">
            <feMorphology radius="1.5" operator="dilate" in="SourceAlpha" result="shadowSpreadOuter1"></feMorphology>
            <feOffset dx="0" dy="2" in="shadowSpreadOuter1" result="shadowOffsetOuter1"></feOffset>
            <feGaussianBlur stdDeviation="2" in="shadowOffsetOuter1" result="shadowBlurOuter1"></feGaussianBlur>
            <feComposite in="shadowBlurOuter1" in2="SourceAlpha" operator="out" result="shadowBlurOuter1"></feComposite>
            <feColorMatrix values="0 0 0 0 0   0 0 0 0 0   0 0 0 0 0  0 0 0 1 0" type="matrix" in="shadowBlurOuter1"></feColorMatrix>
        </filter>
        <path d="M62.7664,83.2389 L78.4352,67.1884 L74.9138,63.0997 C73.0144,60.8936 70.2478,59.6251 67.3367,59.6251 C67.3347,59.6251 67.3328,59.6251 67.3318,59.6251 C64.4187,59.6271 61.6511,60.8985 59.7527,63.1075 L52.8341,71.1574 L62.7664,83.2389 Z" id="path-11"></path>
        <filter x="-35.0%" y="-27.5%" width="170.3%" height="175.1%" filterUnits="objectBoundingBox" id="filter-12">
            <feMorphology radius="1.5" operator="dilate" in="SourceAlpha" result="shadowSpreadOuter1"></feMorphology>
            <feOffset dx="0" dy="2" in="shadowSpreadOuter1" result="shadowOffsetOuter1"></feOffset>
            <feGaussianBlur stdDeviation="2" in="shadowOffsetOuter1" result="shadowBlurOuter1"></feGaussianBlur>
            <feComposite in="shadowBlurOuter1" in2="SourceAlpha" operator="out" result="shadowBlurOuter1"></feComposite>
            <feColorMatrix values="0 0 0 0 0   0 0 0 0 0   0 0 0 0 0  0 0 0 1 0" type="matrix" in="shadowBlurOuter1"></feColorMatrix>
        </filter>
        <path d="M62.6192,86.6822 L43.7745,63.7597 C40.9696,60.3451 35.9273,59.8569 32.5145,62.66 C29.101,65.466 28.6089,70.5074 31.4149,73.92 L55.9276,103.7382 C57.3712,105.4948 59.495,106.5536 61.7662,106.6507 C62.014,106.6608 62.2605,106.6603 62.5052,106.6481 C64.5115,106.5482 66.4168,105.6966 67.8319,104.2465 L94.0301,77.4108 C97.117,74.2495 97.0555,69.1838 93.8941,66.0979 C90.733,63.012 85.669,63.0715 82.5814,66.2338 L62.6192,86.6822 Z" id="path-13"></path>
        <filter x="-12.7%" y="-14.2%" width="125.5%" height="137.1%" filterUnits="objectBoundingBox" id="filter-14">
            <feMorphology radius="1.5" operator="dilate" in="SourceAlpha" result="shadowSpreadOuter1"></feMorphology>
            <feOffset dx="0" dy="2" in="shadowSpreadOuter1" result="shadowOffsetOuter1"></feOffset>
            <feGaussianBlur stdDeviation="2" in="shadowOffsetOuter1" result="shadowBlurOuter1"></feGaussianBlur>
            <feComposite in="shadowBlurOuter1" in2="SourceAlpha" operator="out" result="shadowBlurOuter1"></feComposite>
            <feColorMatrix values="0 0 0 0 0   0 0 0 0 0   0 0 0 0 0  0 0 0 1 0" type="matrix" in="shadowBlurOuter1"></feColorMatrix>
        </filter>
        <path d="M162.0877,31.8496 C163.7588,39.4277 152.7193,53.394 156.6866,63.8327 C162.1099,78.1024 175.6829,74.4689 171.4257,72.8843 C167.1685,71.2997 163.0005,66.6404 169.9042,51.3559 C177.1824,35.2419 170.5855,27.3537 164.0396,22.9957 C163.9764,25.988 163.3422,28.9936 162.0877,31.8496 Z" id="path-15"></path>
        <filter x="-49.1%" y="-15.0%" width="198.3%" height="135.4%" filterUnits="objectBoundingBox" id="filter-16">
            <feMorphology radius="1.5" operator="dilate" in="SourceAlpha" result="shadowSpreadOuter1"></feMorphology>
            <feOffset dx="0" dy="2" in="shadowSpreadOuter1" result="shadowOffsetOuter1"></feOffset>
            <feGaussianBlur stdDeviation="2" in="shadowOffsetOuter1" result="shadowBlurOuter1"></feGaussianBlur>
            <feComposite in="shadowBlurOuter1" in2="SourceAlpha" operator="out" result="shadowBlurOuter1"></feComposite>
            <feColorMatrix values="0 0 0 0 0   0 0 0 0 0   0 0 0 0 0  0 0 0 1 0" type="matrix" in="shadowBlurOuter1"></feColorMatrix>
        </filter>
        <path d="M126.6834,38.1336 C135.2994,45.8928 148.5738,45.1974 156.3345,36.5823 C164.0935,27.9666 163.3994,14.6909 154.7852,6.9326 C146.169,-0.8266 132.8942,-0.1344 125.1333,8.4809 C117.3715,17.0978 118.0665,30.3719 126.6834,38.1336 Z" id="path-17"></path>
        <filter x="-20.2%" y="-15.5%" width="140.5%" height="140.5%" filterUnits="objectBoundingBox" id="filter-18">
            <feMorphology radius="1.5" operator="dilate" in="SourceAlpha" result="shadowSpreadOuter1"></feMorphology>
            <feOffset dx="0" dy="2" in="shadowSpreadOuter1" result="shadowOffsetOuter1"></feOffset>
            <feGaussianBlur stdDeviation="2" in="shadowOffsetOuter1" result="shadowBlurOuter1"></feGaussianBlur>
            <feComposite in="shadowBlurOuter1" in2="SourceAlpha" operator="out" result="shadowBlurOuter1"></feComposite>
            <feColorMatrix values="0 0 0 0 0   0 0 0 0 0   0 0 0 0 0  0 0 0 1 0" type="matrix" in="shadowBlurOuter1"></feColorMatrix>
        </filter>
    </defs>
    <g id="Page-2" stroke="none" stroke-width="1" fill="none" fill-rule="evenodd">
        <g id="sex-etsy-10" transform="translate(5.000000, 4.000000)" fill-rule="nonzero">
            <g id="Shape">
                <use fill="black" fill-opacity="1" filter="url(#filter-2)" xlink:href="#path-1"></use>
                <use stroke="#1A1A1D" stroke-width="3" fill="#4E4E50" xlink:href="#path-1"></use>
            </g>
            <g id="Shape">
                <use fill="black" fill-opacity="1" filter="url(#filter-4)" xlink:href="#path-3"></use>
                <use stroke="#1A1A1D" stroke-width="3" fill="#6F2232" xlink:href="#path-3"></use>
            </g>
            <g id="Path">
                <use fill="black" fill-opacity="1" filter="url(#filter-6)" xlink:href="#path-5"></use>
                <use stroke="#1A1A1D" stroke-width="3" fill="#4E4E50" xlink:href="#path-5"></use>
            </g>
            <g id="Path">
                <use fill="black" fill-opacity="1" filter="url(#filter-8)" xlink:href="#path-7"></use>
                <use stroke="#1A1A1D" stroke-width="3" fill="#4E4E50" xlink:href="#path-7"></use>
            </g>
            <g id="Path">
                <use fill="black" fill-opacity="1" filter="url(#filter-10)" xlink:href="#path-9"></use>
                <use stroke="#1A1A1D" stroke-width="3" fill="#6F2232" xlink:href="#path-9"></use>
            </g>
            <g id="Path">
                <use fill="black" fill-opacity="1" filter="url(#filter-12)" xlink:href="#path-11"></use>
                <use stroke="#1A1A1D" stroke-width="3" fill="#6F2232" xlink:href="#path-11"></use>
            </g>
            <g id="Path">
                <use fill="black" fill-opacity="1" filter="url(#filter-14)" xlink:href="#path-13"></use>
                <use stroke="#1A1A1D" stroke-width="3" fill="#4E4E50" xlink:href="#path-13"></use>
            </g>
            <g id="Path">
                <use fill="black" fill-opacity="1" filter="url(#filter-16)" xlink:href="#path-15"></use>
                <use stroke="#1A1A1D" stroke-width="3" fill="#6F2232" xlink:href="#path-15"></use>
            </g>
            <g id="Path">
                <use fill="black" fill-opacity="1" filter="url(#filter-18)" xlink:href="#path-17"></use>
                <use stroke="#1A1A1D" stroke-width="3" fill="#6F2232" xlink:href="#path-17"></use>
            </g>
        </g>
    </g>
</svg>

<svg xmlns="http://www.w3.org/2000/svg" xmlns:xlink="http://www.w3.org/1999/xlink" width="191" height="236"><defs><filter id="i" width="153.6%" height="148.7%" x="-26.1%" y="-20%" filterUnits="objectBoundingBox"><feMorphology in="SourceAlpha" operator="dilate" radius="1.5" result="shadowSpreadOuter1"/><feOffset dy="2" in="shadowSpreadOuter1" result="shadowOffsetOuter1"/><feGaussianBlur in="shadowOffsetOuter1" result="shadowBlurOuter1" stdDeviation="2"/><feComposite in="shadowBlurOuter1" in2="SourceAlpha" operator="out" result="shadowBlurOuter1"/><feColorMatrix in="shadowBlurOuter1" values="0 0 0 0 0 0 0 0 0 0 0 0 0 0 0 0 0 0 1 0"/></filter><filter id="q" width="140.5%" height="140.5%" x="-20.2%" y="-15.5%" filterUnits="objectBoundingBox"><feMorphology in="SourceAlpha" operator="dilate" radius="1.5" result="shadowSpreadOuter1"/><feOffset dy="2" in="shadowSpreadOuter1" result="shadowOffsetOuter1"/><feGaussianBlur in="shadowOffsetOuter1" result="shadowBlurOuter1" stdDeviation="2"/><feComposite in="shadowBlurOuter1" in2="SourceAlpha" operator="out" result="shadowBlurOuter1"/><feColorMatrix in="shadowBlurOuter1" values="0 0 0 0 0 0 0 0 0 0 0 0 0 0 0 0 0 0 1 0"/></filter><filter id="o" width="198.3%" height="135.4%" x="-49.1%" y="-15%" filterUnits="objectBoundingBox"><feMorphology in="SourceAlpha" operator="dilate" radius="1.5" result="shadowSpreadOuter1"/><feOffset dy="2" in="shadowSpreadOuter1" result="shadowOffsetOuter1"/><feGaussianBlur in="shadowOffsetOuter1" result="shadowBlurOuter1" stdDeviation="2"/><feComposite in="shadowBlurOuter1" in2="SourceAlpha" operator="out" result="shadowBlurOuter1"/><feColorMatrix in="shadowBlurOuter1" values="0 0 0 0 0 0 0 0 0 0 0 0 0 0 0 0 0 0 1 0"/></filter><filter id="c" width="117.1%" height="108.7%" x="-9%" y="-3.3%" filterUnits="objectBoundingBox"><feMorphology in="SourceAlpha" operator="dilate" radius="1.5" result="shadowSpreadOuter1"/><feOffset dy="2" in="shadowSpreadOuter1" result="shadowOffsetOuter1"/><feGaussianBlur in="shadowOffsetOuter1" result="shadowBlurOuter1" stdDeviation="2"/><feComposite in="shadowBlurOuter1" in2="SourceAlpha" operator="out" result="shadowBlurOuter1"/><feColorMatrix in="shadowBlurOuter1" values="0 0 0 0 0 0 0 0 0 0 0 0 0 0 0 0 0 0 1 0"/></filter><filter id="m" width="125.5%" height="137.1%" x="-12.7%" y="-14.2%" filterUnits="objectBoundingBox"><feMorphology in="SourceAlpha" operator="dilate" radius="1.5" result="shadowSpreadOuter1"/><feOffset dy="2" in="shadowSpreadOuter1" result="shadowOffsetOuter1"/><feGaussianBlur in="shadowOffsetOuter1" result="shadowBlurOuter1" stdDeviation="2"/><feComposite in="shadowBlurOuter1" in2="SourceAlpha" operator="out" result="shadowBlurOuter1"/><feColorMatrix in="shadowBlurOuter1" values="0 0 0 0 0 0 0 0 0 0 0 0 0 0 0 0 0 0 1 0"/></filter><filter id="e" width="133.1%" height="114.1%" x="-16.6%" y="-5.8%" filterUnits="objectBoundingBox"><feMorphology in="SourceAlpha" operator="dilate" radius="1.5" result="shadowSpreadOuter1"/><feOffset dy="2" in="shadowSpreadOuter1" result="shadowOffsetOuter1"/><feGaussianBlur in="shadowOffsetOuter1" result="shadowBlurOuter1" stdDeviation="2"/><feComposite in="shadowBlurOuter1" in2="SourceAlpha" operator="out" result="shadowBlurOuter1"/><feColorMatrix in="shadowBlurOuter1" values="0 0 0 0 0 0 0 0 0 0 0 0 0 0 0 0 0 0 1 0"/></filter><filter id="k" width="170.3%" height="175.1%" x="-35%" y="-27.5%" filterUnits="objectBoundingBox"><feMorphology in="SourceAlpha" operator="dilate" radius="1.5" result="shadowSpreadOuter1"/><feOffset dy="2" in="shadowSpreadOuter1" result="shadowOffsetOuter1"/><feGaussianBlur in="shadowOffsetOuter1" result="shadowBlurOuter1" stdDeviation="2"/><feComposite in="shadowBlurOuter1" in2="SourceAlpha" operator="out" result="shadowBlurOuter1"/><feColorMatrix in="shadowBlurOuter1" values="0 0 0 0 0 0 0 0 0 0 0 0 0 0 0 0 0 0 1 0"/></filter><filter id="g" width="137.8%" height="137.8%" x="-18.9%" y="-14.4%" filterUnits="objectBoundingBox"><feMorphology in="SourceAlpha" operator="dilate" radius="1.5" result="shadowSpreadOuter1"/><feOffset dy="2" in="shadowSpreadOuter1" result="shadowOffsetOuter1"/><feGaussianBlur in="shadowOffsetOuter1" result="shadowBlurOuter1" stdDeviation="2"/><feComposite in="shadowBlurOuter1" in2="SourceAlpha" operator="out" result="shadowBlurOuter1"/><feColorMatrix in="shadowBlurOuter1" values="0 0 0 0 0 0 0 0 0 0 0 0 0 0 0 0 0 0 1 0"/></filter><filter id="a" width="130.8%" height="129.3%" x="-14.9%" y="-11.2%" filterUnits="objectBoundingBox"><feMorphology in="SourceAlpha" operator="dilate" radius="1.5" result="shadowSpreadOuter1"/><feOffset dy="2" in="shadowSpreadOuter1" result="shadowOffsetOuter1"/><feGaussianBlur in="shadowOffsetOuter1" result="shadowBlurOuter1" stdDeviation="2"/><feComposite in="shadowBlurOuter1" in2="SourceAlpha" operator="out" result="shadowBlurOuter1"/><feColorMatrix in="shadowBlurOuter1" values="0 0 0 0 0 0 0 0 0 0 0 0 0 0 0 0 0 0 1 0"/></filter><path id="j" d="M52.1 102.7L39.2 87.02l-17.28 20.11a10 10 0 0015.16 13.04L52.1 102.7z"/><path id="l" d="M62.77 83.24l15.67-16.05-3.53-4.09a10 10 0 00-15.16 0l-6.92 8.06 9.94 12.08z"/><path id="h" d="M25.6 44.97A22.5 22.5 0 1028.05.04a22.5 22.5 0 00-2.47 44.93z"/><path id="n" d="M62.62 86.68L43.77 63.76a8 8 0 00-12.36 10.16l24.52 29.82a8 8 0 0011.9.5l26.2-26.83a8 8 0 10-11.45-11.18L62.62 86.68z"/><path id="f" d="M76.3 98.87l-6.82 6.98a10.26 10.26 0 01-7.8 3.1 10.32 10.32 0 01-7.53-3.75l-.57-.7-7.17 8.34a73.92 73.92 0 014.22 9.62c3.2 7.35 5.92 10.16 9.2 10.46-.9 35.78-23.98 71.62-24.26 72.05a12.5 12.5 0 1020.9 13.72c1.65-2.5 38.13-58.94 25.81-110.36a31.33 31.33 0 00-.64-3.26l-5.35-6.2z"/><path id="p" d="M162.09 31.85c1.67 7.58-9.37 21.54-5.4 31.98 5.42 14.27 19 10.64 14.74 9.05-4.26-1.58-8.43-6.24-1.53-21.52 7.28-16.12.69-24-5.86-28.36-.06 2.99-.7 6-1.95 8.85z"/><path id="d" d="M76.66 61.6l3.39 3.94.89-.91a10.27 10.27 0 0110.85-2.5l12.5-10.74a12.26 12.26 0 015.34-6.83 12.2 12.2 0 002.52 19.55 12.2 12.2 0 0012.26-.27 12.23 12.23 0 01-17.9-1.12 31.56 31.56 0 01-1.72 4.22c-.36.71-.74 1.38-1.14 1.99-1.81 2.7-3.71 4.67-5.64 6.33a10.25 10.25 0 01-2.33 3.76L77.9 97.22l12.01 13.95a9.99 9.99 0 009.42 3.3c.19.16.4.32.62.5L120.1 216.5a10 10 0 0019.62-3.9l-17.88-90.08c2.4-.83 4.58-2.59 6.28-5.68a23.69 23.69 0 002.38-5.43c3.6-9.1.9-15.32 5.15-24.82.3-.69.66-1.37 1.06-2.06a32.3 32.3 0 012.54-3.7 12.17 12.17 0 01-10.36-14.52 12.2 12.2 0 0024.19 2.23c.03 2.07-.44 4.16-1.51 6.1-.15.26-.3.5-.47.75l16.5 47.95a6.5 6.5 0 1012.29-4.23l-14.85-43.17c-3.3-1.2-7.79-4.13-10.51-11.3-1.8-4.7-.97-9.82.52-14.76a36.99 36.99 0 00-5.27-5.93 23.3 23.3 0 01-31.01-13.59c-2.89-.37-5.1-.4-6.45-.36a6.48 6.48 0 00-4.9 1.53l-32.79 28.2a12.3 12.3 0 012.02 1.86zm38.67-4.61A2.47 2.47 0 11111 54.6a2.47 2.47 0 014.32 2.39zM140.5 73.7a2.47 2.47 0 112.39-4.32 2.47 2.47 0 01-2.39 4.32z"/><path id="r" d="M126.68 38.13a21 21 0 1028.1-31.2 21 21 0 00-28.1 31.2z"/><path id="b" d="M7.84 106.9l11.25.22c.32-.51.67-1.01 1.08-1.49l17.55-20.42-8.08-9.83a10.23 10.23 0 01-2.3-7.54c.27-2.74 1.59-5.21 3.71-6.96a10.35 10.35 0 0114.5 1.42l5.8 7.05 5.54-6.44a190.7 190.7 0 00-5.75-5.88c-11.11-10.77-24.25-9.3-30.9-3.54-.04.04-.08.08-.12.12C6.32 63.93 1.09 91.64.1 97.61a8 8 0 007.73 9.29zM22.7 79.14c2.85 3.65 6.2 7.78 9.6 12.25l-14.48-.3c1.16-4.49 2.6-8.9 4.2-12.74.22.26.44.54.68.8z"/></defs><g fill="none" fill-rule="nonzero"><g transform="translate(5 4)"><use fill="#000" filter="url(#a)" xlink:href="#b"/><use fill="#4E4E50" stroke="#1A1A1D" stroke-width="3" xlink:href="#b"/></g><g transform="translate(5 4)"><use fill="#000" filter="url(#c)" xlink:href="#d"/><use fill="#6F2232" stroke="#1A1A1D" stroke-width="3" xlink:href="#d"/></g><g transform="translate(5 4)"><use fill="#000" filter="url(#e)" xlink:href="#f"/><use fill="#4E4E50" stroke="#1A1A1D" stroke-width="3" xlink:href="#f"/></g><g transform="translate(5 4)"><use fill="#000" filter="url(#g)" xlink:href="#h"/><use fill="#4E4E50" stroke="#1A1A1D" stroke-width="3" xlink:href="#h"/></g><g transform="translate(5 4)"><use fill="#000" filter="url(#i)" xlink:href="#j"/><use fill="#6F2232" stroke="#1A1A1D" stroke-width="3" xlink:href="#j"/></g><g transform="translate(5 4)"><use fill="#000" filter="url(#k)" xlink:href="#l"/><use fill="#6F2232" stroke="#1A1A1D" stroke-width="3" xlink:href="#l"/></g><g transform="translate(5 4)"><use fill="#000" filter="url(#m)" xlink:href="#n"/><use fill="#4E4E50" stroke="#1A1A1D" stroke-width="3" xlink:href="#n"/></g><g transform="translate(5 4)"><use fill="#000" filter="url(#o)" xlink:href="#p"/><use fill="#6F2232" stroke="#1A1A1D" stroke-width="3" xlink:href="#p"/></g><g transform="translate(5 4)"><use fill="#000" filter="url(#q)" xlink:href="#r"/><use fill="#6F2232" stroke="#1A1A1D" stroke-width="3" xlink:href="#r"/></g></g></svg>
